front/public/static/landing/logos/gray/backmarket.svg

<svg fill="none" height="240" viewBox="0 0 600 240" width="600" xmlns="http://www.w3.org/2000/svg"><g fill="#364153"><path d="m129.449 146.694v-53.4615h20.529c9.374 0 15.881 6.0435 15.881 14.6435 0 4.572-2.247 8.756-6.275 11.003 5.345 2.014 8.444 6.586 8.444 12.552 0 8.987-6.352 15.263-16.036 15.263zm8.908-30.837h10.691c4.88 0 7.979-2.944 7.979-7.361 0-4.416-3.099-7.438-7.979-7.438h-10.691zm0 23.012h11.776c5.422 0 8.986-3.022 8.986-7.748 0-4.727-3.564-7.749-8.986-7.749h-11.776zm33.415-11.39c0-11.235 8.367-19.99 19.367-19.99 5.422 0 9.993 2.169 12.859 5.889v-5.114h8.212v38.43h-8.212v-5.113c-2.788 3.719-7.437 5.888-12.859 5.888-11 0-19.367-8.755-19.367-19.99zm31.917 0c0-6.896-4.881-11.932-11.62-11.932-6.74 0-11.698 5.036-11.698 11.932s4.958 11.855 11.698 11.855c6.739 0 11.62-4.959 11.62-11.855zm13.23 0c0-11.235 8.754-19.99 20.219-19.99 9.451 0 15.881 5.811 18.282 11.932l-8.056 3.099c-1.549-4.029-5.5-6.973-10.226-6.973-6.739 0-11.62 5.191-11.62 11.932s4.958 11.932 11.62 11.932c4.803 0 8.677-2.867 10.226-6.896l8.056 3.022c-2.401 6.198-8.831 11.932-18.282 11.932-11.465 0-20.219-8.755-20.219-19.99zm44.001 19.215v-53.4615h8.6v32.0765l15.028-17.045h10.148l-15.958 18.363 16.655 20.067h-10.458l-15.415-18.285v18.285zm46.29-.009v-53.685h10.727l18.75 35.399 18.67-35.399h10.488v53.685h-8.819v-38.515l-17.081 32.287h-6.834l-17.082-32.287v38.512zm63.36-19.216c0-11.234 8.367-19.99 19.366-19.99 5.423 0 9.994 2.17 12.859 5.889v-5.114h8.212v38.431h-8.212v-5.114c-2.79 3.719-7.436 5.888-12.859 5.888-10.999 0-19.366-8.755-19.366-19.99zm31.917 0c0-6.895-4.882-11.932-11.621-11.932-6.742 0-11.7 5.037-11.7 11.932 0 6.896 4.958 11.855 11.7 11.855 6.739 0 11.621-4.959 11.621-11.855zm14.434 19.216v-38.431h8.209v5.346c2.171-3.332 5.812-5.346 11.235-5.346h2.632v8.601h-3.637c-6.975 0-9.84 3.796-9.84 9.762v20.068zm26.955 0v-53.4656h8.603v32.0806l15.026-17.046h10.147l-15.956 18.363 16.654 20.068h-10.459l-15.412-18.286v18.286z"/><path d="m476.316 127.468c0-11.234 8.599-19.99 19.523-19.99 10.923 0 19.211 8.368 19.211 19.758 0 .93 0 1.937-.158 2.867h-30.056c1.009 6.276 5.348 9.84 11.389 9.84 4.65 0 8.212-2.324 10.226-5.811l7.129 4.029c-3.874 5.811-9.919 9.298-17.355 9.298-11.31 0-19.909-8.833-19.909-19.991zm8.753-3.641h21.303c-.772-5.191-4.799-8.911-10.612-8.911-5.344 0-9.45 3.332-10.691 8.911zm51.36 22.857c-8.757 0-12.938-3.797-12.938-11.777v-18.751h-6.352v-7.903h4.413c1.163 0 1.939-.775 1.939-2.169v-7.4418h8.599v9.6078h10.222v7.903h-10.222v17.898c0 3.022 1.47 4.571 4.957 4.571h5.265v8.059zm-424.38-53.4527h-49.3525c-2.595 0-4.6965 2.0955-4.6965 4.6845v44.0932c0 2.589 2.1015 4.685 4.6965 4.685h49.3525c2.592 0 4.697-2.099 4.697-4.685v-44.0932c0-2.586-2.102-4.6845-4.697-4.6845zm-22.0483 42.9277h-9.6867c-.3101 0-.6037-.123-.8231-.342l-15.5066-15.509c-.1902-.191-.1902-.5 0-.694l15.5066-15.509c.2194-.22.513-.343.8231-.343h9.6867c.2643 0 .3967.32.2096.504l-15.345 15.348c-.1905.19-.1905.5 0 .694l15.345 15.347c.1871.188.0547.504-.2096.504zm5.1772-15.851 15.3441 15.347c.188.188.056.504-.209.504h-9.687c-.31 0-.604-.123-.8228-.342l-15.5063-15.512c-.1905-.191-.1905-.501 0-.694l15.5063-15.51c.2188-.219.5128-.342.8228-.342h9.687c.265 0 .397.32.209.504l-15.3441 15.348c-.1905.19-.1905.503 0 .697z"/></g></svg>

<svg width="600" height="240" viewBox="0 0 600 240" fill="none" xmlns="http://www.w3.org/2000/svg">
<path d="M129.449 146.694V93.2325H149.978C159.352 93.2325 165.859 99.276 165.859 107.876C165.859 112.448 163.612 116.632 159.584 118.879C164.929 120.893 168.028 125.465 168.028 131.431C168.028 140.418 161.676 146.694 151.992 146.694H129.449ZM138.357 115.857H149.048C153.928 115.857 157.027 112.913 157.027 108.496C157.027 104.08 153.928 101.058 149.048 101.058H138.357V115.857ZM138.357 138.869H150.133C155.555 138.869 159.119 135.847 159.119 131.121C159.119 126.394 155.555 123.372 150.133 123.372H138.357V138.869ZM171.772 127.479C171.772 116.244 180.139 107.489 191.139 107.489C196.561 107.489 201.132 109.658 203.998 113.378V108.264H212.21V146.694H203.998V141.581C201.21 145.3 196.561 147.469 191.139 147.469C180.139 147.469 171.772 138.714 171.772 127.479ZM203.689 127.479C203.689 120.583 198.808 115.547 192.069 115.547C185.329 115.547 180.371 120.583 180.371 127.479C180.371 134.375 185.329 139.334 192.069 139.334C198.808 139.334 203.689 134.375 203.689 127.479ZM216.919 127.479C216.919 116.244 225.673 107.489 237.138 107.489C246.589 107.489 253.019 113.3 255.42 119.421L247.364 122.52C245.815 118.491 241.864 115.547 237.138 115.547C230.399 115.547 225.518 120.738 225.518 127.479C225.518 134.22 230.476 139.411 237.138 139.411C241.941 139.411 245.815 136.544 247.364 132.515L255.42 135.537C253.019 141.735 246.589 147.469 237.138 147.469C225.673 147.469 216.919 138.714 216.919 127.479ZM260.92 146.694V93.2325H269.52V125.309L284.548 108.264H294.696L278.738 126.627L295.393 146.694H284.935L269.52 128.409V146.694H260.92ZM307.21 146.685V93H317.937L336.687 128.399L355.357 93H365.845V146.685H357.026V108.17L339.945 140.457H333.111L316.029 108.17V146.682L307.21 146.685ZM370.57 127.469C370.57 116.235 378.937 107.479 389.936 107.479C395.359 107.479 399.93 109.649 402.795 113.368V108.254H411.007V146.685H402.795V141.571C400.005 145.29 395.359 147.459 389.936 147.459C378.937 147.459 370.57 138.704 370.57 127.469ZM402.487 127.469C402.487 120.574 397.605 115.537 390.866 115.537C384.124 115.537 379.166 120.574 379.166 127.469C379.166 134.365 384.124 139.324 390.866 139.324C397.605 139.324 402.487 134.365 402.487 127.469ZM416.921 146.685V108.254H425.13V113.6C427.301 110.268 430.942 108.254 436.365 108.254H438.997V116.855H435.36C428.385 116.855 425.52 120.651 425.52 126.617V146.685H416.921ZM443.876 146.685V93.2194H452.479V125.3L467.505 108.254H477.652L461.696 126.617L478.35 146.685H467.891L452.479 128.399V146.685H443.876Z" fill="#364153"/>
<path d="M476.316 127.468C476.316 116.234 484.915 107.478 495.839 107.478C506.762 107.478 515.05 115.846 515.05 127.236C515.05 128.166 515.05 129.173 514.892 130.103H484.836C485.845 136.379 490.184 139.943 496.225 139.943C500.875 139.943 504.437 137.619 506.451 134.132L513.58 138.161C509.706 143.972 503.661 147.459 496.225 147.459C484.915 147.459 476.316 138.626 476.316 127.468ZM485.069 123.827H506.372C505.6 118.636 501.573 114.916 495.76 114.916C490.416 114.916 486.31 118.248 485.069 123.827ZM536.429 146.684C527.672 146.684 523.491 142.887 523.491 134.907V116.156H517.139V108.253H521.552C522.715 108.253 523.491 107.478 523.491 106.084V98.6422H532.09V108.25H542.312V116.153H532.09V134.051C532.09 137.073 533.56 138.622 537.047 138.622H542.312V146.681L536.429 146.684ZM112.049 93.2313H62.6965C60.1015 93.2313 58 95.3268 58 97.9158V142.009C58 144.598 60.1015 146.694 62.6965 146.694H112.049C114.641 146.694 116.746 144.595 116.746 142.009V97.9158C116.746 95.3298 114.644 93.2313 112.049 93.2313ZM90.0007 136.159H80.314C80.0039 136.159 79.7103 136.036 79.4909 135.817L63.9843 120.308C63.7941 120.117 63.7941 119.808 63.9843 119.614L79.4909 104.105C79.7103 103.885 80.0039 103.762 80.314 103.762H90.0007C90.265 103.762 90.3974 104.082 90.2103 104.266L74.8653 119.614C74.6748 119.804 74.6748 120.114 74.8653 120.308L90.2103 135.655C90.3974 135.843 90.265 136.159 90.0007 136.159ZM95.1779 120.308L110.522 135.655C110.71 135.843 110.578 136.159 110.313 136.159H100.626C100.316 136.159 100.022 136.036 99.8032 135.817L84.2969 120.305C84.1064 120.114 84.1064 119.804 84.2969 119.611L99.8032 104.101C100.022 103.882 100.316 103.759 100.626 103.759H110.313C110.578 103.759 110.71 104.079 110.522 104.263L95.1779 119.611C94.9874 119.801 94.9874 120.114 95.1779 120.308Z" fill="#364153"/>
</svg>
